X: 11032
T: The BROOM OF COWDENKNOWS
Q: "Slow"
%R: air
B: "Edinburgh Repository of Music" v.1 p.103 #2
F: http://digital.nls.uk/special-collections-of-printed-music/pageturner.cfm?id=87776133
Z: 2015 John Chambers <jc:trillian.mit.edu>
N: The rhythm at the end is as written, which isn't quite correct (but it's a slow air).
M: C
L: 1/8
K: D
D2 |\
D3 A A3 B | (AF) E>D D2 (d>A) | B2 (d>e) {de}f2 Te>d | B6 d2 |\
A>B d>e {de}f2 e>d | d2 D>E {G}F2 ED | G3A B>cdf | F4 E8 :|

%%sep 2 1 500
%%sep 1 1 500

